X: 2107
T: Çökertme
C: Rüştü Gür
O: Turkey
F: http://compmusic.upf.edu/node/140
N: muhayyerkurdi--turku--sofyan--cokertmeden_ciktim_da--
N: makam= muhayyerkurdi
N: form= turku
N: usul= sofyan = 4/4
M: 4/4
L: 1/16
K: C _B   
Q: 1/4=96
%%MIDI tuningsystem comma53
e2e2 f2{g}e2 {f}d4 a4  | g2^2/4f2 {g}e2d2 {e}c2d2 e4  | \
w:  ARANAĞME  |   | 
c2d4e2 c2B2 B2A2  | e6e2 e{g}fed e4  | 
w:   |   | 
e2e2 f2{g}e2 {f}d4 a4  | g2^2/4f2 {g}e2d2 {e}c2d2 e4  | \
w:  ARANAĞME  |   | 
c2d4e2 c2B2 B2A2  | A6c'2 _2/4bc'd'b c'4  | 
w:   |   | 
c'2c'2 c'2_2/4b2 b2a2 a4  | a2{c'}_2/4b2 a2g2 ^2/4f2e2 d4  | \
w:  Çö kert *  *  me *  den   |  çık *  *  tım  da  Ha li lim   | 
^3/4f2g2 a2_2/4b2 g2g2 b2a2  | 
w:  a man  ba şım  se lâ  | 
a6g2 ^3/4f2g2 a2_2/4b2  | c'2c'2 c'2_2/4b2 b2a2 a4  | \
w:  met   SAZ  |  Çö kert *  *  me *  den   | 
a2{c'}_2/4b2 a2g2 ^2/4f2e2 d4  | ^3/4f2g2 a2_2/4b2 g2g2 b2a2  | 
w:  çık *  *  tım  da  Ha li lim   |  a man  ba şım  se lâ  | 
a6g2 ^3/4f2g2 a4  | d2e4f2 d2d2 a2a2  | \
w:  met   SAZ  |  Bi tez  de  ya lı sı na   | 
g2{a}f2 e2d2 c2d2 e2z2  | c2d2 d2e2 c2B2 B2A2  | 
w:  var *  *  ma dan  Ha li lim   |  a man  kop tu  kı *  ya  | 
e6d2 c2d2 e4  | d2e4f2 d2d2 a2a2  | g2{a}f2 e2d2 c2d2 e2z2  | \
w:  met   SAZ  |  Bi tez  de  ya lı sı na   |  var *  *  ma dan  Ha li lim   | 
c2d2 d2e2 c2B2 B2A2  | 
w:  a man  kop tu  kı *  ya  | 
A6c'2 _2/4bc'd'b c'4  | _2/4b2c'4b2 b2a2 a4  | \
w:  met   SAZ  |  *  Ar ka da *  şım   | 
a2{c'}_2/4b2 a2g2 ^2/4f2e2 d4  | ^3/4f2g2 a2_2/4b2 g2g2 b2a2  | 
w:  İb *  *  ram  *  ça *  vuş   |  Al la hı ma  e ma  | 
a6c'2 _2/4bc'd'b c'4  | _2/4b2c'4b2 b2a2 a4  | \
w:  net   SAZ  |  *  Ar ka da *  şım   | 
a2{c'}_2/4b2 a2g2 ^2/4f2e2 d4  | ^3/4f2g2 a2_2/4b2 g2g2 b2a2  | 
w:  İb *  *  ram  *  ça *  vuş   |  Al la hı ma  e ma  | 
a6a2 ^3/4f2g2 {a}e4  | e2e2 e2f2 d4 a4  | \
w:  net   SAZ  |  Bu ra sı  da  As pat   | 
{a}g2f2 e2d2 c2d2 e4  | c2d2 d2e2 c2B2 B2A2  | 
w:  *  de *  ğil  *  Ha li lim   |  a man  Bi tez  ya *  lı  | 
e6e2 e/f/g/a/g/f/e/d/ e4  | e2e2 f2e2 d4 a4  | \
w:  sı   SAZ  |  Ci ğe *  *  ri me   | 
g2f2 e2d2 c2d2 e4  | 
w:  a *  teş  *  sal *  dı   | 
c2d2 d2e2 c2B2 B2A2  | A8 c2d2 e4  | \
w:  tel li  kur şun  ya *  ra  |  sı   SAZ  | 
e2e2 e2f2 d4 a4  | {a}g2f2 e2d2 c2d2 e4  | 
w:  Bu ra sı  da  As pat   |  *  de *  ğil  *  Ha li lim   | 
c2d2 d2e2 c2B2 B2A2  | e6e2 e/f/g/a/g/f/e/d/ e4  | \
w:  a man  Bi tez  ya *  lı  |  sı   SAZ  | 
e2e2 f2e2 d4 a4  | 
w:  Ci ğe *  *  ri me   | 
g2f2 e2d2 c2d2 e4  | c2d2 d2e2 c2B2 B2A2  | A16  | \
w:  a *  teş  *  sal *  dı   |  tel li  kur şun  ya *  ra  |  sı    | 
e2e2 f2{g}e2 {f}d4 a4  | 
w:  ARANAĞME  | 
g2^2/4f2 {g}e2d2 {e}c2d2 e4  | c2d4e2 c2B2 B2A2  | \
w:   |   | 
e6e2 e{g}fed e4  | 
w:   | 
e2e2 f2{g}e2 {f}d4 a4  | g2^2/4f2 {g}e2d2 {e}c2d2 e4  | \
w:  ARANAĞME  |   | 
c2d4e2 c2B2 B2A2  | A6c'2 _2/4bc'd'b c'4  | 
w:   |   | 
c'2c'2 c'2_2/4b2 b2a2 a4  | a2{c'}_2/4b2 a2g2 ^2/4f2e2 d4  | \
w:  Çö kert *  *  me *  den   |  çık *  *  tım  da  Ha li lim   | 
^3/4f2g2 a2_2/4b2 g2g2 b2a2  | 
w:  a man  ba şım  se lâ  | 
a6g2 ^3/4f2g2 a2_2/4b2  | c'2c'2 c'2_2/4b2 b2a2 a4  | \
w:  met   SAZ  |  Çö kert *  *  me *  den   | 
a2{c'}_2/4b2 a2g2 ^2/4f2e2 d4  | ^3/4f2g2 a2_2/4b2 g2g2 b2a2  | 
w:  çık *  *  tım  da  Ha li lim   |  a man  ba şım  se lâ  | 
a6g2 ^3/4f2g2 a4  | d2e4f2 d2d2 a2a2  | \
w:  met   SAZ  |  Bi tez  de  ya lı sı na   | 
g2{a}f2 e2d2 c2d2 e2z2  | c2d2 d2e2 c2B2 B2A2  | 
w:  var *  *  ma dan  Ha li lim   |  a man  kop tu  kı *  ya  | 
e6d2 c2d2 e4  | d2e4f2 d2d2 a2a2  | g2{a}f2 e2d2 c2d2 e2z2  | \
w:  met   SAZ  |  Bi tez  de  ya lı sı na   |  var *  *  ma dan  Ha li lim   | 
c2d2 d2e2 c2B2 B2A2  | 
w:  a man  kop tu  kı *  ya  | 
A6c'2 _2/4bc'd'b c'4  | _2/4b2c'4b2 b2a2 a4  | \
w:  met   SAZ  |  *  Ar ka da *  şım   | 
a2{c'}_2/4b2 a2g2 ^2/4f2e2 d4  | ^3/4f2g2 a2_2/4b2 g2g2 b2a2  | 
w:  İb *  *  ram  *  ça *  vuş   |  Al la hı ma  e ma  | 
a6c'2 _2/4bc'd'b c'4  | _2/4b2c'4b2 b2a2 a4  | \
w:  net   SAZ  |  *  Ar ka da *  şım   | 
a2{c'}_2/4b2 a2g2 ^2/4f2e2 d4  | ^3/4f2g2 a2_2/4b2 g2g2 b2a2  | 
w:  İb *  *  ram  *  ça *  vuş   |  Al la hı ma  e ma  | 
a6a2 ^3/4f2g2 {a}e4  | e2e2 e2f2 d4 a4  | \
w:  net   SAZ  |  Bu ra sı  da  As pat   | 
{a}g2f2 e2d2 c2d2 e4  | c2d2 d2e2 c2B2 B2A2  | 
w:  *  de *  ğil  *  Ha li lim   |  a man  Bi tez  ya *  lı  | 
e6e2 e/f/g/a/g/f/e/d/ e4  | e2e2 f2e2 d4 a4  | \
w:  sı   SAZ  |  Ci ğe *  *  ri me   | 
g2f2 e2d2 c2d2 e4  | 
w:  a *  teş  *  sal *  dı   | 
c2d2 d2e2 c2B2 B2A2  | A8 c2d2 e4  | \
w:  tel li  kur şun  ya *  ra  |  sı   SAZ  | 
e2e2 e2f2 d4 a4  | {a}g2f2 e2d2 c2d2 e4  | 
w:  Bu ra sı  da  As pat   |  *  de *  ğil  *  Ha li lim   | 
c2d2 d2e2 c2B2 B2A2  | e6e2 e/f/g/a/g/f/e/d/ e4  | \
w:  a man  Bi tez  ya *  lı  |  sı   SAZ  | 
e2e2 f2e2 d4 a4  | 
w:  Ci ğe *  *  ri me   | 
g2f2 e2d2 c2d2 e4  | c2d2 d2e2 c2B2 B2A2  | A16  | |


